img/icon/check-mark.svg

<svg width="18" height="18" viewBox="0 0 18 18" fill="none" xmlns="http://www.w3.org/2000/svg">
<path fill-rule="evenodd" clip-rule="evenodd" d="M18 9C18 10.1388 16.6191 10.9952 16.2085 11.9853C15.7826 13.0123 16.1378 14.5901 15.3635 15.3639C14.5901 16.1373 13.0123 15.7826 11.9853 16.208C10.9952 16.6191 10.1392 18 9 18C7.86124 18 7.00484 16.6191 6.01468 16.208C4.9881 15.7826 3.4095 16.1373 2.63608 15.3639C1.86223 14.5901 2.2174 13.0123 1.79153 11.9853C1.3809 10.9952 0 10.1388 0 9C0 7.86124 1.3809 7.00484 1.79153 6.01425C2.2174 4.98768 1.86265 3.4095 2.63608 2.63608C3.40992 1.86223 4.9881 2.2174 6.01468 1.79153C7.00484 1.3809 7.86124 0 9 0C10.1392 0 10.9952 1.3809 11.9857 1.79153C13.0123 2.2174 14.5901 1.86223 15.3639 2.63608C16.1378 3.4095 15.7826 4.98768 16.2085 6.01425C16.6191 7.00484 18 7.86124 18 9Z" fill="url(#paint0_linear)" fill-opacity="0.2"/>
<path d="M11.5713 7.71429L8.57175 11.0019L6.42847 8.85987" stroke="url(#paint1_linear)" stroke-width="2" stroke-linecap="round"/>
<defs>
<linearGradient id="paint0_linear" x1="0" y1="0" x2="0" y2="18" gradientUnits="userSpaceOnUse">
<stop stop-color="#5986FB"/>
<stop offset="1" stop-color="#2D4EF5"/>
</linearGradient>
<linearGradient id="paint1_linear" x1="6.42847" y1="7.71429" x2="6.42847" y2="11.0019" gradientUnits="userSpaceOnUse">
<stop stop-color="#5986FB"/>
<stop offset="1" stop-color="#2D4EF5"/>
</linearGradient>
</defs>
</svg>

<svg width="18" height="18" fill="none" xmlns="http://www.w3.org/2000/svg"><path fill-rule="evenodd" clip-rule="evenodd" d="M18 9c0 1.139-1.38 1.995-1.791 2.985-.426 1.027-.071 2.605-.845 3.379-.774.773-2.352.419-3.379.844C10.995 16.619 10.14 18 9 18c-1.139 0-1.995-1.38-2.985-1.792-1.027-.425-2.605-.07-3.379-.844s-.419-2.352-.844-3.379C1.38 10.995 0 10.14 0 9c0-1.139 1.38-1.995 1.792-2.986.425-1.026.07-2.605.844-3.378.774-.774 2.352-.419 3.379-.844C7.005 1.38 7.86 0 9 0s1.995 1.38 2.986 1.792c1.026.425 2.604.07 3.378.844.774.773.419 2.352.845 3.378C16.619 7.004 18 7.861 18 9z" fill="url(#paint0_linear)" fill-opacity=".2"/><path d="M11.571 7.714l-3 3.288L6.429 8.86" stroke="url(#paint1_linear)" stroke-width="2" stroke-linecap="round"/><defs><linearGradient id="paint0_linear" x2="0" y2="18" gradientUnits="userSpaceOnUse"><stop stop-color="#5986FB"/><stop offset="1" stop-color="#2D4EF5"/></linearGradient><linearGradient id="paint1_linear" x1="6.428" y1="7.714" x2="6.428" y2="11.002" gradientUnits="userSpaceOnUse"><stop stop-color="#5986FB"/><stop offset="1" stop-color="#2D4EF5"/></linearGradient></defs></svg>
